packages/assets/static/images/icons/traffic-cone.svg

<svg width="24" height="24" viewBox="0 0 24 24" xmlns="http://www.w3.org/2000/svg">
<path d="M21.7504 19.875H20.0339L14.3836 3.63281C14.2813 3.33852 14.09 3.08336 13.8362 2.90276C13.5823 2.72216 13.2785 2.62508 12.967 2.625H11.0339C10.7224 2.62501 10.4187 2.72196 10.1649 2.90238C9.91107 3.0828 9.71968 3.33776 9.6173 3.63188L3.96699 19.875H2.25043C2.05151 19.875 1.86075 19.954 1.7201 20.0947C1.57944 20.2353 1.50043 20.4261 1.50043 20.625C1.50043 20.8239 1.57944 21.0147 1.7201 21.1553C1.86075 21.296 2.05151 21.375 2.25043 21.375H21.7504C21.9493 21.375 22.1401 21.296 22.2808 21.1553C22.4214 21.0147 22.5004 20.8239 22.5004 20.625C22.5004 20.4261 22.4214 20.2353 22.2808 20.0947C22.1401 19.954 21.9493 19.875 21.7504 19.875ZM8.94699 10.125H15.0539L16.6195 14.625H7.38136L8.94699 10.125ZM11.0339 4.125H12.967L14.5317 8.625H9.46918L11.0339 4.125ZM6.86011 16.125H17.1407L18.4457 19.875H5.55511L6.86011 16.125Z"/>
</svg>

<svg viewBox="0 0 24 24" xmlns="http://www.w3.org/2000/svg" aria-hidden="true" fill="currentColor"><path d="M21.75 19.875h-1.716l-5.65-16.242a1.5 1.5 0 0 0-1.417-1.008h-1.933a1.5 1.5 0 0 0-1.417 1.007l-5.65 16.243H2.25a.75.75 0 1 0 0 1.5h19.5a.75.75 0 1 0 0-1.5m-12.803-9.75h6.107l1.565 4.5H7.381zm2.087-6h1.933l1.565 4.5H9.469zm-4.174 12h10.28l1.306 3.75H5.556z"/></svg>
